X: 8
T:Staten Island
M:C
L:1/8
R:Reel
Z:Tim Barker, '9
K:D
||:AG|"D"FD FG A2A2|dfed dcBA|v"G"B2 GB "D"uA2 FA|"A7"G2 E2 E2 AG|!
"D"FD FG A2 A2|dfed dcBA|d2 cd efge|f2 d2 d2:||!
fg|va2 fa ug2 eg|f2 df ecAB|=c2 c2 efge|=c2 c2 efge|!
 va2 fa ug2 eg|f2 df ecAB|d2cd efge|f2 d2 d2:||
% <A name="D1X009">
